dist/img/sprites/company-insurance-7.svg

<svg width="551" height="100" viewBox="0 0 551 100" xmlns="http://www.w3.org/2000/svg">
<path d="M191.092 18.062H205.838V62.1225C205.838 76.672 214.417 85.4005 225.681 85.4005C237.065 85.4005 245.518 76.672 245.518 62.1225V18.062H260.267V65.287C260.267 83.625 246.701 99.294 225.681 99.294C204.657 99.294 191.092 83.625 191.092 65.287V18.062Z" />
<path d="M342.133 97.5828V18.0586H327.546V67.6768L284.733 18.0586H276.766V97.4468H291.353V48.0395L334.07 97.5828H342.133Z" />
<path d="M374.724 18.062H359.584V97.45H374.724V18.062Z" />
<path fill-rule="evenodd" clip-rule="evenodd" d="M471.847 57.7504C471.847 34.4151 453.004 15.5044 429.754 15.5044C406.512 15.5044 387.666 34.4151 387.666 57.7504C387.666 81.0774 406.512 99.9999 429.754 99.9999C438.601 99.9999 446.802 97.2519 453.576 92.5744L460.444 99.533L470.04 89.8059L463.429 83.0984C468.711 76.0364 471.847 67.2609 471.847 57.7504ZM429.754 86.7329C414.662 86.7329 402.422 73.7554 402.422 57.7504C402.422 41.7358 414.662 28.7612 429.754 28.7612C444.851 28.7612 457.089 41.7358 457.089 57.7504C457.089 63.2189 455.657 68.3364 453.173 72.7034L444.123 63.5289L434.523 73.2534L443.775 82.6344C439.671 85.2379 434.881 86.7329 429.754 86.7329Z" />
<path d="M533.946 97.4468H550.101L516.736 18.0586H506.576L472.338 97.4468H488.056L494.218 82.4953H527.976L533.946 97.4468ZM499.594 69.4408L511.361 40.8873L522.761 69.4408H499.594Z" />
<path d="M53.6851 96.2971H0.101562L6.24506 85.2046H37.7191C39.0993 86.4991 40.5378 87.7281 42.0247 88.8896C45.5518 91.6406 49.4655 94.2171 53.6851 96.2971Z" />
<path d="M65.4796 15.7759C63.7481 17.2488 52.6811 39.0639 66.2956 58.2569C70.1351 63.6704 75.7436 70.2679 82.3186 74.1329C89.1556 78.1574 93.7266 79.1769 96.6591 79.9839C101.824 81.4079 109.824 81.9959 120.127 82.5599C128.472 83.0214 145.558 83.1184 148.541 83.1099L151.724 83.1249L159.038 97.2514C159.038 97.2514 134.213 97.3639 122.674 96.7314C109.696 96.0219 99.6126 95.2779 93.1086 93.4869C89.4166 92.4704 83.6611 91.1824 75.0441 86.1179C66.7641 81.2479 58.2751 72.7264 53.8661 65.6144C43.2435 48.4618 45.9091 36.9483 47.3055 31.296C50.3371 27.0379 54.2511 22.9502 58.4761 19.9126C61.5356 17.6787 63.4476 16.8025 65.4796 15.7759Z" />
<path d="M82.6731 95.4125C79.5191 96.024 76.4466 96.305 73.5751 96.299C63.0781 96.281 53.1946 91.2935 45.0322 84.929C35.2406 77.2875 28.0825 66.6625 26.2679 55.0955C26.004 53.748 25.8846 52.383 25.6906 50.473C24.9634 42.5509 26.0858 32.586 31.5675 23.0596C36.3117 14.8218 43.3793 7.6829 55.0236 2.74403C59.8831 0.684421 70.3161 -1.63509 82.3961 1.62118C95.0886 5.167 106.182 13.1479 113.315 23.6284C113.315 23.6284 102.37 9.20905 83.6441 7.5543C82.7971 7.482 81.9516 7.4348 81.1006 7.423C71.8496 7.2354 63.0021 10.4633 55.6316 15.8324C50.9146 19.223 46.7784 23.4956 43.5746 28.4109C43.3984 28.6826 42.8328 29.5277 42.0835 30.875L41.8591 31.2784C41.7017 31.5667 41.5385 31.8753 41.3725 32.2033C39.1015 36.6118 35.9269 44.5026 35.8003 54.471C35.6397 67.3065 41.317 76.561 43.445 79.681C43.499 79.764 48.7826 83.3805 56.7771 84.926C60.0186 85.5495 63.0706 85.6585 65.6756 85.585C67.8691 87.3755 70.1821 89.018 72.5786 90.4305C76.4611 92.7145 79.8076 94.2775 82.6731 95.4125Z" />
<path d="M103.086 20.2227C109.99 24.38 119.932 37.4166 120.388 49.2669C121.121 60.5792 115.52 71.6247 111.782 77.0262C105.728 76.5827 101.138 76.0362 97.9534 75.1587C96.9639 74.8867 95.7744 74.5912 94.3594 74.1447C98.3264 70.4427 104.225 63.4692 107.217 52.7597C111.348 37.8127 107.271 27.6557 103.086 20.2227Z" />
</svg>

<svg width="551" height="100" viewBox="0 0 551 100" xmlns="http://www.w3.org/2000/svg"><path d="M191.092 18.062h14.746v44.06c0 14.55 8.579 23.278 19.843 23.278 11.384 0 19.837-8.728 19.837-23.278v-44.06h14.749v47.225c0 18.338-13.566 34.007-34.586 34.007-21.024 0-34.589-15.669-34.589-34.007V18.062zm151.041 79.521V18.059h-14.587v49.618l-42.813-49.618h-7.967v79.388h14.587V48.039l42.717 49.544h8.063zm32.591-79.521h-15.14V97.45h15.14V18.062z"/><path fill-rule="evenodd" clip-rule="evenodd" d="M471.847 57.75c0-23.335-18.843-42.246-42.093-42.246-23.242 0-42.088 18.911-42.088 42.246 0 23.327 18.846 42.25 42.088 42.25a41.776 41.776 0 0023.822-7.426l6.868 6.959 9.596-9.727-6.611-6.708a42.18 42.18 0 008.418-25.348zm-42.093 28.983c-15.092 0-27.332-12.978-27.332-28.983 0-16.014 12.24-28.989 27.332-28.989 15.097 0 27.335 12.975 27.335 28.99 0 5.468-1.432 10.585-3.916 14.952l-9.05-9.174-9.6 9.724 9.252 9.381c-4.104 2.604-8.894 4.099-14.021 4.099z"/><path d="M533.946 97.447h16.155l-33.365-79.388h-10.16l-34.238 79.388h15.718l6.162-14.952h33.758l5.97 14.952zM499.594 69.44l11.767-28.554 11.4 28.554h-23.167zM53.685 96.297H.102l6.143-11.092H37.72a62.85 62.85 0 004.306 3.685c3.527 2.75 7.44 5.327 11.66 7.407zM65.48 15.776c-1.732 1.473-12.799 23.288.816 42.48 3.84 5.414 9.448 12.012 16.023 15.877 6.837 4.024 11.408 5.044 14.34 5.85 5.165 1.425 13.165 2.013 23.468 2.577 8.345.461 25.431.558 28.414.55l3.183.015 7.314 14.126s-24.825.113-36.364-.52c-12.978-.71-23.061-1.453-29.565-3.244-3.692-1.017-9.448-2.305-18.065-7.37-8.28-4.87-16.769-13.39-21.178-20.503-10.623-17.152-7.957-28.666-6.56-34.318 3.031-4.258 6.945-8.346 11.17-11.383 3.06-2.234 4.972-3.11 7.004-4.137z"/><path d="M82.673 95.412a47.508 47.508 0 01-9.098.887c-10.497-.018-20.38-5.006-28.543-11.37-9.791-7.642-16.95-18.267-18.764-29.834-.264-1.347-.383-2.712-.577-4.622-.728-7.922.395-17.887 5.877-27.413 4.744-8.238 11.811-15.377 23.456-20.316 4.86-2.06 15.292-4.38 27.372-1.123 12.693 3.546 23.786 11.527 30.919 22.007 0 0-10.945-14.419-29.67-16.074a35.676 35.676 0 00-2.544-.131c-9.251-.188-18.099 3.04-25.47 8.41-4.716 3.39-8.853 7.663-12.056 12.578-.177.272-.742 1.117-1.492 2.464l-.224.403c-.157.289-.32.597-.486.925-2.271 4.409-5.446 12.3-5.573 22.268-.16 12.836 5.517 22.09 7.645 25.21.054.083 5.338 3.7 13.332 5.245 3.242.623 6.294.733 8.899.659 2.193 1.79 4.506 3.433 6.903 4.846 3.882 2.284 7.229 3.847 10.094 4.981z"/><path d="M103.086 20.223c6.904 4.157 16.846 17.194 17.302 29.044.733 11.312-4.868 22.358-8.606 27.76-6.054-.444-10.644-.99-13.829-1.868-.99-.272-2.179-.568-3.594-1.014 3.967-3.702 9.866-10.676 12.858-21.385 4.131-14.947.054-25.104-4.131-32.537z"/></svg>
